X: 1
T: Hon. Miss Drummond Of Perth's Delight, The
Z: Susan Kingston
S: https://thesession.org/tunes/16310#setting30885
R: jig
M: 6/8
L: 1/8
K: Amaj
E | AAA A2 c/2d/2| e-e/2f/2e  ecA | FBB B2 B/2c/2 | d-d/2e/2d/2c/2  BGE | AAA A2 c/2d/2 |
e-e/2f/2e  ecA | Fdc BAG | AAA A2 :|
c/2d/2 | efg  a2 g | fed cBA | dfe/2d/2  ced/2c/2 |
dFc/2B/2  A/2G/2FE | efg a-a/2b/2a/2g/2 |fed cBA | Fdc BGE | AAA A2 :|
